static/assets/template/assets/img/icons/essential/detailed/Receiving_money_2.svg

<svg height="148" viewBox="0 0 133 148" width="133" xmlns="http://www.w3.org/2000/svg"><g fill="none" fill-rule="evenodd" transform="translate(1 2)"><circle cx="75.2" cy="63.3" fill-rule="nonzero" r="30.5"/><path d="m50.7 63.8c0-.2 0-.3 0-.5 0-2.8.5-5.4 1.3-7.9" stroke-linecap="round" stroke-linejoin="round" stroke-width="3"/><path d="m55.5 77.9c-1.7-2.3-3.1-5-3.9-7.9" stroke-linecap="round" stroke-linejoin="round" stroke-width="3"/><path d="m60.3 82.8c-.5-.4-1-.8-1.5-1.3" stroke-linecap="round" stroke-linejoin="round" stroke-width="3"/><path d="m97.6 73.2c-2.7 6-7.6 10.7-13.8 13" stroke-linecap="round" stroke-linejoin="round" stroke-width="3"/><path d="m82 39.8c8.2 2.4 14.6 8.9 16.8 17.2" stroke-linecap="round" stroke-linejoin="round" stroke-width="3"/><path d="m68.2 39.8c1.1-.3 2.2-.6 3.3-.7" stroke-linecap="round" stroke-linejoin="round" stroke-width="3"/><path d="m74.3 78.7v-2.7c-1.7 0-3.5-.4-4.8-1.1-.6-.3-1-1-.7-1.7.3-.8 1.1-1.1 1.8-.8 1.2.6 2.7.9 4.3.9 2.8 0 4.6-1.6 4.6-3.8 0-2.1-1.5-3.4-4.4-4.6-4-1.5-6.4-3.3-6.4-6.7 0-3.2 2.3-5.7 5.9-6.2v-2.7c0-.7.5-1.2 1.2-1.2s1.2.5 1.2 1.2v2.6c1.6.1 2.9.4 3.9.8.7.3 1 1.1.7 1.7-.3.7-1.1 1.1-1.8.8-.9-.4-2.1-.7-3.6-.7-3 0-4.1 1.8-4.1 3.3 0 2 1.4 3 4.8 4.4 4 1.6 6 3.6 6 7.1 0 3.1-2.1 5.9-6.1 6.6v2.8c0 .7-.5 1.2-1.2 1.2s-1.3-.5-1.3-1.2z" fill-rule="nonzero"/><path d="m25.4 117.3v.5.5c0-.4 0-.7 0-1z" fill-rule="nonzero"/><g transform="translate(24 98)"><path d="m63.9 23h-11.4c-5.3 0-9.6-4.3-9.6-9.6s4.3-9.6 9.6-9.6l49.9 2.9" fill-rule="nonzero"/><path d="m106.1 30.1-.8-.1.2-.1-.6-16c0-.8-.4-1.5-.9-2h.1-.1c-.5-.5-1.2-.8-1.9-.8-.2 0-49.4-2.5-49.6-2.5-4.8 0-8.8 3.5-9.5 8.2 0-.2 0-.3-.1-.5v-.5 1.5c-.1.8-.1.9 0 1.5l-27.6-16.8c-6.4-4-14.6.7-14.6 8.1 0 .1.1 1.9.2 1.9 0 .2.1.5.1.5.8 2.5 1.9 4.3 4.3 5.8 29.4 22.6 24 19.3 32.8 22.3 22.4 7.5 15.9 7.6 38.5-.1l23.5-8 1.1-.4.9-.3 2-.7 1.6-.5z" fill-rule="nonzero"/><g stroke-linecap="round" stroke-linejoin="round" stroke-width="3"><path d="m63.9 23h-11.4c-5.3 0-9.6-4.3-9.6-9.6s4.3-9.6 9.6-9.6l51.6 3c1.3.1 2.3 1.1 2.3 2.4"/><path d="m73.7 23h-2.6"/><path d="m46.3 20.7-2.6-1.6-.4-.3-.2-.2-.1-.1-27.6-16.8c-4.5-2.8-10.4-1.4-13.2 3.1-1 1.6-1.4 3.3-1.4 5 0 .6.1 1.3.2 1.9 0 .2.1.3.1.5 0 .2.1.4.2.6.2.7.5 1.4.9 2 .1.1.1.2.2.3s.2.3.3.4c.2.2.3.4.5.6 0 .1.1.1.2.2s.2.3.4.4l.4.4c.1.1.2.2.4.3.1.1.3.2.4.3.2.1.4.2.5.4l24.4 18.8c1 .8 2.2 1.4 3.5 1.8l19.5 6.6c3 1 6.3 1 9.3 0l38.2-13.1 2-.7 2-.7 2-.7"/></g></g><g transform="translate(0 4)"><path d="m84.8 30.4c-.3-.1-.6-.2-1-.3-2.7-.8-5.7-1.3-8.7-1.3-4.9 0-9.5 1.1-13.6 3.2l-5.8-5.2c-.2-.1-.3-.3-.5-.4s-.3-.3-.5-.4c-.2-.2-.5-.3-.7-.4-.8-.5-1.7-.8-2.7-1.1-.5-.1-1.1-.2-1.6-.2l-7.4-.4c-.6 0-1.1.1-1.6.5-.1.1-.2.2-.3.2-.3.3-.5.6-.6 1l-2.6 8.7c-.2.6-.1 1.3.1 1.8.1.2.2.4.4.6s.4.4.6.5c.1.1.2.1.3.2l.3.1 3.2 1.3 7.7 3.2 4.6 1.9c.4.2.8.4 1.2.6.1.1.3.2.4.3 0 0 .1 0 .1.1.2.1.3.2.5.4.1.1.3.2.4.3s.3.2.4.4c.1.1.3.3.4.4s.2.3.4.4c.1.1.2.3.3.4.1.1.2.3.3.4.2.3.4.6.5.9.1.2.2.3.2.5.1.2.1.3.2.5s.1.3.2.5.1.3.1.5.1.3.1.5.1.4.1.5c.1.8.1 1.7-.1 2.5 0 .2-.1.5-.1.7-.1.3-.2.6-.2.9-.1.3-.2.7-.4 1-.8 1.7-2.5 2.7-4.3 2.7-.5 0-1-.1-1.5-.3l-8.9-3.1-6.7-2.3-19.3-6.7c-3.1-1.1-5.9-2.9-8.1-5.3l-6.2-6.9-3.1-3.5c-.5-.6-.8-1.3-.8-2.1 0-4.3.2-19.2.1-25.7 0-1 .5-1.9 1.2-2.5.1-.1.1-.1.2-.2s.3-.2.4-.2.2-.1.2-.1c.1 0 .1-.1.2-.1h.1.2.2.3 45.8c3.8 0 7.4 1.5 10 4.2z" fill-rule="nonzero"/><path d="m83.8 30.1c-2.7-.8-5.7-1.3-8.7-1.3-4.9 0-9.5 1.1-13.6 3.2l-5.8-5.2c-.2-.1-.3-.3-.5-.4s-.3-.3-.5-.4c-.2-.2-.5-.3-.7-.4-.8-.5-1.7-.8-2.7-1.1-.5-.1-1.1-.2-1.6-.2l-7.4-.4c-.6 0-1.1.1-1.6.5-.1.1-.2.2-.3.2-.3.3-.5.6-.6 1l-2.6 8.7c-.2.6-.1 1.3.1 1.8.1.2.2.4.4.6s.4.4.6.5c.1.1.2.1.3.2l.3.1 3.2 1.3c.3.3.6.6 1 .8l.3.1 6.2 2.6 7 2.9c.1.1.3.2.4.3s.3.2.4.4l.4.4c.1.1.2.3.4.4.1.1.2.3.3.4.1.1.2.3.3.4.2.3.4.6.5.9.1.2.2.3.2.5.1.2.1.3.2.5s.1.3.2.5.1.3.1.5.1.3.1.5.1.4.1.5c.1.8.1 1.7-.1 2.5 0 .2-.1.5-.1.7-.1.3-.2.6-.2.9-.1.3-.2.7-.4 1-.8 1.7-2.5 2.7-4.3 2.7-.5 0-1-.1-1.5-.3l-8.9-3.1-6.7-2.3-19.3-6.7c-3.1-1.1-5.9-2.9-8.1-5.3l-6.2-6.9c-.1-.4-.2-.7-.2-1.1 0-4.3.2-19.2.1-25.7 0-1.7 1.4-3.1 3.1-3.1h45.8c3.8 0 7.4 1.5 10 4.2z" fill-rule="nonzero"/><g stroke-linecap="round" stroke-linejoin="round" stroke-width="3"><path d="m1.9 1.1c.5-.4 1.2-.7 1.9-.7h5.5"/><path d="m1.4 31.4 3.1 3.5 6.2 6.9c2.2 2.4 5 4.3 8.1 5.3 39.5 13.6 14.6 5 34.9 12 6.1 2.1 8.7-7.4 4.9-11.9 0-.2-1.3-1.8-2.9-2.7-2.2-1.3-16.9-6.7-17.9-7.8-.6-.7-.8-1.7-.5-2.4l2.6-8.7c.1-.4.3-.7.6-1 .1-.1.2-.2.3-.2.4-.3 1-.5 1.6-.5 7.8.5 9.2.3 11.8 1.7.5 0 6.5 5.6 6.9 5.9"/><path d="m20.8.4h28.7c3.8 0 7.4 1.5 10 4.2l25.1 25.6"/><path d="m16 .4h.3"/></g></g><g stroke-linecap="round" stroke-linejoin="round"><path d="m99.7 45.2c3.8 5.1 6 11.4 6 18.2 0 16.8-13.7 30.5-30.5 30.5s-30.5-13.7-30.5-30.5c0-.8 0-1.6.1-2.3" stroke-width="3"/><path d="m93.1 38.6c.1.1.3.2.4.3" stroke-width="3"/><path d="m53.2 42.1c5.5-5.8 13.3-9.3 22-9.3 4.9 0 9.5 1.2 13.6 3.2" stroke-width="3"/><path d="m100.8 19.8v-5.7" stroke-width="4"/><path d="m100.8 33.2v-5.3" stroke-width="4"/><path d="m94 2.5v-2.2" stroke-width="4"/><path d="m94 29v-20.8" stroke-width="4"/></g></g></svg>

<?xml version="1.0" encoding="UTF-8"?>
<svg width="133px" height="148px" viewBox="0 0 133 148" version="1.1" xmlns="http://www.w3.org/2000/svg" xmlns:xlink="http://www.w3.org/1999/xlink">
    <!-- Generator: Sketch 51.2 (57519) - http://www.bohemiancoding.com/sketch -->
    <title>Receiving_money_2</title>
    <desc>Created with Sketch.</desc>
    <defs></defs>
    <g id="Page-1" stroke="none" stroke-width="1" fill="none" fill-rule="evenodd">
        <g id="Receiving_money_2" transform="translate(1.000000, 2.000000)">
            <circle id="Oval" class="fill-neutral" fill-rule="nonzero" cx="75.2" cy="63.3" r="30.5"></circle>
            <path d="M50.7,63.8 C50.7,63.6 50.7,63.5 50.7,63.3 C50.7,60.5 51.2,57.9 52,55.4" id="Shape" class="stroke-primary-300" stroke-width="3" stroke-linecap="round" stroke-linejoin="round"></path>
            <path d="M55.5,77.9 C53.8,75.6 52.4,72.9 51.6,70" id="Shape" class="stroke-primary-300" stroke-width="3" stroke-linecap="round" stroke-linejoin="round"></path>
            <path d="M60.3,82.8 C59.8,82.4 59.3,82 58.8,81.5" id="Shape" class="stroke-primary-300" stroke-width="3" stroke-linecap="round" stroke-linejoin="round"></path>
            <path d="M97.6,73.2 C94.9,79.2 90,83.9 83.8,86.2" id="Shape" class="stroke-primary-300" stroke-width="3" stroke-linecap="round" stroke-linejoin="round"></path>
            <path d="M82,39.8 C90.2,42.2 96.6,48.7 98.8,57" id="Shape" class="stroke-primary-300" stroke-width="3" stroke-linecap="round" stroke-linejoin="round"></path>
            <path d="M68.2,39.8 C69.3,39.5 70.4,39.2 71.5,39.1" id="Shape" class="stroke-primary-300" stroke-width="3" stroke-linecap="round" stroke-linejoin="round"></path>
            <path d="M74.3,78.7 L74.3,76 C72.6,76 70.8,75.6 69.5,74.9 C68.9,74.6 68.5,73.9 68.8,73.2 C69.1,72.4 69.9,72.1 70.6,72.4 C71.8,73 73.3,73.3 74.9,73.3 C77.7,73.3 79.5,71.7 79.5,69.5 C79.5,67.4 78,66.1 75.1,64.9 C71.1,63.4 68.7,61.6 68.7,58.2 C68.7,55 71,52.5 74.6,52 L74.6,49.3 C74.6,48.6 75.1,48.1 75.8,48.1 C76.5,48.1 77,48.6 77,49.3 L77,51.9 C78.6,52 79.9,52.3 80.9,52.7 C81.6,53 81.9,53.8 81.6,54.4 C81.3,55.1 80.5,55.5 79.8,55.2 C78.9,54.8 77.7,54.5 76.2,54.5 C73.2,54.5 72.1,56.3 72.1,57.8 C72.1,59.8 73.5,60.8 76.9,62.2 C80.9,63.8 82.9,65.8 82.9,69.3 C82.9,72.4 80.8,75.2 76.8,75.9 L76.8,78.7 C76.8,79.4 76.3,79.9 75.6,79.9 C74.9,79.9 74.3,79.4 74.3,78.7 Z" id="Shape" class="fill-primary" fill-rule="nonzero"></path>
            <path d="M25.4,117.3 C25.4,117.5 25.4,117.6 25.4,117.8 C25.4,117.8 25.4,117.8 25.4,117.8 C25.4,118 25.4,118.1 25.4,118.3 C25.4,117.9 25.4,117.6 25.4,117.3 Z" id="Shape" class="fill-primary-100" fill-rule="nonzero"></path>
            <g id="Group" transform="translate(24.000000, 98.000000)">
                <path d="M63.9,23 L52.5,23 C47.2,23 42.9,18.7 42.9,13.4 C42.9,8.1 47.2,3.8 52.5,3.8 L102.4,6.7" id="Shape" class="fill-neutral" fill-rule="nonzero"></path>
                <path d="M106.1,30.1 L105.3,30 L105.5,29.9 L104.9,13.9 C104.9,13.1 104.5,12.4 104,11.9 L104.1,11.9 L104,11.9 C103.5,11.4 102.8,11.1 102.1,11.1 C101.9,11.1 52.7,8.6 52.5,8.6 C47.7,8.6 43.7,12.1 43,16.8 C43,16.6 43,16.5 42.9,16.3 C42.9,16.3 42.9,15.8 42.9,15.8 C42.9,15.9 42.9,17.3 42.9,17.3 C42.8,18.1 42.8,18.2 42.9,18.8 L15.3,2 C8.9,-2 0.7,2.7 0.7,10.1 C0.7,10.2 0.8,12 0.9,12 C0.9,12.2 1,12.5 1,12.5 C1,12.5 1,12.5 1,12.5 C1.8,15 2.9,16.8 5.3,18.3 C34.7,40.9 29.3,37.6 38.1,40.6 C60.5,48.1 54,48.2 76.6,40.5 L100.1,32.5 L101.2,32.1 L102.1,31.8 L104.1,31.1 L105.7,30.6 L106.1,30.1 Z" id="Shape" class="fill-primary-100" fill-rule="nonzero"></path>
                <path d="M63.9,23 L52.5,23 C47.2,23 42.9,18.7 42.9,13.4 C42.9,8.1 47.2,3.8 52.5,3.8 L104.1,6.8 C105.4,6.9 106.4,7.9 106.4,9.2" id="Shape" class="stroke-primary" stroke-width="3" stroke-linecap="round" stroke-linejoin="round"></path>
                <path d="M73.7,23 L71.1,23" id="Shape" class="stroke-primary" stroke-width="3" stroke-linecap="round" stroke-linejoin="round"></path>
                <path d="M46.3,20.7 L43.7,19.1 L43.3,18.8 L43.1,18.6 L43,18.5 L15.4,1.7 C10.9,-1.1 5,0.3 2.2,4.8 C1.2,6.4 0.8,8.1 0.8,9.8 C0.8,10.4 0.9,11.1 1,11.7 C1,11.7 1,11.7 1,11.7 C1,11.9 1.1,12 1.1,12.2 C1.1,12.2 1.1,12.2 1.1,12.2 C1.1,12.4 1.2,12.6 1.3,12.8 C1.5,13.5 1.8,14.2 2.2,14.8 C2.3,14.9 2.3,15 2.4,15.1 C2.5,15.2 2.6,15.4 2.7,15.5 C2.9,15.7 3,15.9 3.2,16.1 C3.2,16.2 3.3,16.2 3.4,16.3 C3.5,16.4 3.6,16.6 3.8,16.7 C3.9,16.8 4,16.9 4.2,17.1 C4.3,17.2 4.4,17.3 4.6,17.4 C4.7,17.5 4.9,17.6 5,17.7 C5.2,17.8 5.4,17.9 5.5,18.1 L29.9,36.9 C30.9,37.7 32.1,38.3 33.4,38.7 L52.9,45.3 C55.9,46.3 59.2,46.3 62.2,45.3 L100.4,32.2 L102.4,31.5 L104.4,30.8 L106.4,30.1" id="Shape" class="stroke-primary" stroke-width="3" stroke-linecap="round" stroke-linejoin="round"></path>
            </g>
            <g id="Group" transform="translate(0.000000, 4.000000)">
                <path d="M84.8,30.4 C84.5,30.3 84.2,30.2 83.8,30.1 C81.1,29.3 78.1,28.8 75.1,28.8 C70.2,28.8 65.6,29.9 61.5,32 L55.7,26.8 C55.5,26.7 55.4,26.5 55.2,26.4 C55,26.3 54.9,26.1 54.7,26 C54.5,25.8 54.2,25.7 54,25.6 C54,25.6 54,25.6 54,25.6 C53.2,25.1 52.3,24.8 51.3,24.5 C50.8,24.4 50.2,24.3 49.7,24.3 L42.3,23.9 C41.7,23.9 41.2,24 40.7,24.4 C40.6,24.5 40.5,24.6 40.4,24.6 C40.1,24.9 39.9,25.2 39.8,25.6 L37.2,34.3 C37,34.9 37.1,35.6 37.3,36.1 C37.4,36.3 37.5,36.5 37.7,36.7 C37.9,36.9 38.1,37.1 38.3,37.2 C38.4,37.3 38.5,37.3 38.6,37.4 L38.9,37.5 L42.1,38.8 L49.8,42 L54.4,43.9 C54.8,44.1 55.2,44.3 55.6,44.5 C55.7,44.6 55.9,44.7 56,44.8 C56,44.8 56.1,44.8 56.1,44.9 C56.3,45 56.4,45.1 56.6,45.3 C56.7,45.4 56.9,45.5 57,45.6 C57.1,45.7 57.3,45.8 57.4,46 C57.5,46.1 57.7,46.3 57.8,46.4 C57.9,46.5 58,46.7 58.2,46.8 C58.3,46.9 58.4,47.1 58.5,47.2 C58.5,47.2 58.5,47.2 58.5,47.2 C58.6,47.3 58.7,47.5 58.8,47.6 C59,47.9 59.2,48.2 59.3,48.5 C59.4,48.7 59.5,48.8 59.5,49 C59.6,49.2 59.6,49.3 59.7,49.5 C59.8,49.7 59.8,49.8 59.9,50 C60,50.2 60,50.3 60,50.5 C60,50.7 60.1,50.8 60.1,51 C60.1,51.2 60.2,51.4 60.2,51.5 C60.3,52.3 60.3,53.2 60.1,54 C60.1,54.2 60,54.5 60,54.7 C59.9,55 59.8,55.3 59.8,55.6 C59.7,55.9 59.6,56.3 59.4,56.6 C58.6,58.3 56.9,59.3 55.1,59.3 C54.6,59.3 54.1,59.2 53.6,59 L44.7,55.9 L38,53.6 L18.7,46.9 C15.6,45.8 12.8,44 10.6,41.6 L4.4,34.7 L1.3,31.2 C0.8,30.6 0.5,29.9 0.5,29.1 C0.5,24.8 0.7,9.9 0.6,3.4 C0.6,2.4 1.1,1.5 1.8,0.9 C1.9,0.8 1.9,0.8 2,0.7 C2.1,0.6 2.3,0.5 2.4,0.5 C2.5,0.5 2.6,0.4 2.6,0.4 C2.7,0.4 2.7,0.3 2.8,0.3 C2.8,0.3 2.9,0.3 2.9,0.3 C3,0.3 3,0.3 3.1,0.3 C3.2,0.3 3.3,0.3 3.3,0.3 C3.4,0.3 3.5,0.3 3.6,0.3 L49.4,0.3 C53.2,0.3 56.8,1.8 59.4,4.5 L84.8,30.4 Z" id="Shape" class="fill-neutral" fill-rule="nonzero"></path>
                <path d="M83.8,30.1 C81.1,29.3 78.1,28.8 75.1,28.8 C70.2,28.8 65.6,29.9 61.5,32 L55.7,26.8 C55.5,26.7 55.4,26.5 55.2,26.4 C55,26.3 54.9,26.1 54.7,26 C54.5,25.8 54.2,25.7 54,25.6 C54,25.6 54,25.6 54,25.6 C53.2,25.1 52.3,24.8 51.3,24.5 C50.8,24.4 50.2,24.3 49.7,24.3 L42.3,23.9 C41.7,23.9 41.2,24 40.7,24.4 C40.6,24.5 40.5,24.6 40.4,24.6 C40.1,24.9 39.9,25.2 39.8,25.6 L37.2,34.3 C37,34.9 37.1,35.6 37.3,36.1 C37.4,36.3 37.5,36.5 37.7,36.7 C37.9,36.9 38.1,37.1 38.3,37.2 C38.4,37.3 38.5,37.3 38.6,37.4 L38.9,37.5 L42.1,38.8 C42.4,39.1 42.7,39.4 43.1,39.6 L43.4,39.7 L49.6,42.3 L56.6,45.2 C56.7,45.3 56.9,45.4 57,45.5 C57.1,45.6 57.3,45.7 57.4,45.9 C57.5,46 57.7,46.2 57.8,46.3 C57.9,46.4 58,46.6 58.2,46.7 C58.3,46.8 58.4,47 58.5,47.1 C58.5,47.1 58.5,47.1 58.5,47.1 C58.6,47.2 58.7,47.4 58.8,47.5 C59,47.8 59.2,48.1 59.3,48.4 C59.4,48.6 59.5,48.7 59.5,48.9 C59.6,49.1 59.6,49.2 59.7,49.4 C59.8,49.6 59.8,49.7 59.9,49.9 C60,50.1 60,50.2 60,50.4 C60,50.6 60.1,50.7 60.1,50.9 C60.1,51.1 60.2,51.3 60.2,51.4 C60.3,52.2 60.3,53.1 60.1,53.9 C60.1,54.1 60,54.4 60,54.6 C59.9,54.9 59.8,55.2 59.8,55.5 C59.7,55.8 59.6,56.2 59.4,56.5 C58.6,58.2 56.9,59.2 55.1,59.2 C54.6,59.2 54.1,59.1 53.6,58.9 L44.7,55.8 L38,53.5 L18.7,46.8 C15.6,45.7 12.8,43.9 10.6,41.5 L4.4,34.6 C4.3,34.2 4.2,33.9 4.2,33.5 C4.2,29.2 4.4,14.3 4.3,7.8 C4.3,6.1 5.7,4.7 7.4,4.7 L53.2,4.7 C57,4.7 60.6,6.2 63.2,8.9 L83.8,30.1 Z" id="Shape" class="fill-primary-100" fill-rule="nonzero"></path>
                <path d="M1.9,1.1 C2.4,0.7 3.1,0.4 3.8,0.4 L9.3,0.4" id="Shape" class="stroke-primary" stroke-width="3" stroke-linecap="round" stroke-linejoin="round"></path>
                <path d="M1.4,31.4 L4.5,34.9 L10.7,41.8 C12.9,44.2 15.7,46.1 18.8,47.1 C58.3,60.7 33.4,52.1 53.7,59.1 C59.8,61.2 62.4,51.7 58.6,47.2 C58.6,47 57.3,45.4 55.7,44.5 C53.5,43.2 38.8,37.8 37.8,36.7 C37.2,36 37,35 37.3,34.3 L39.9,25.6 C40,25.2 40.2,24.9 40.5,24.6 C40.6,24.5 40.7,24.4 40.8,24.4 C41.2,24.1 41.8,23.9 42.4,23.9 C50.2,24.4 51.6,24.2 54.2,25.6 C54.7,25.6 60.7,31.2 61.1,31.5" id="Shape" class="stroke-primary" stroke-width="3" stroke-linecap="round" stroke-linejoin="round"></path>
                <path d="M20.8,0.4 L49.5,0.4 C53.3,0.4 56.9,1.9 59.5,4.6 L84.6,30.2" id="Shape" class="stroke-primary" stroke-width="3" stroke-linecap="round" stroke-linejoin="round"></path>
                <path d="M16,0.4 L16.3,0.4" id="Shape" class="stroke-primary" stroke-width="3" stroke-linecap="round" stroke-linejoin="round"></path>
            </g>
            <path d="M99.7,45.2 C103.5,50.3 105.7,56.6 105.7,63.4 C105.7,80.2 92,93.9 75.2,93.9 C58.4,93.9 44.7,80.2 44.7,63.4 C44.7,62.6 44.7,61.8 44.8,61.1" id="Shape" class="stroke-primary" stroke-width="3" stroke-linecap="round" stroke-linejoin="round"></path>
            <path d="M93.1,38.6 C93.2,38.7 93.4,38.8 93.5,38.9" id="Shape" class="stroke-primary" stroke-width="3" stroke-linecap="round" stroke-linejoin="round"></path>
            <path d="M53.2,42.1 C58.7,36.3 66.5,32.8 75.2,32.8 C80.1,32.8 84.7,34 88.8,36" id="Shape" class="stroke-primary" stroke-width="3" stroke-linecap="round" stroke-linejoin="round"></path>
            <path d="M100.8,19.8 L100.8,14.1" id="Shape" class="stroke-primary-300" stroke-width="4" stroke-linecap="round" stroke-linejoin="round"></path>
            <path d="M100.8,33.2 L100.8,27.9" id="Shape" class="stroke-primary-300" stroke-width="4" stroke-linecap="round" stroke-linejoin="round"></path>
            <path d="M94,2.5 L94,0.3" id="Shape" class="stroke-primary-300" stroke-width="4" stroke-linecap="round" stroke-linejoin="round"></path>
            <path d="M94,29 L94,8.2" id="Shape" class="stroke-primary-300" stroke-width="4" stroke-linecap="round" stroke-linejoin="round"></path>
        </g>
    </g>
</svg>
